X:1
T:Title
%%score { ( 1 3 ) | 2 }
L:1/8
Q:1/4=94
M:4/4
K:Ab
V:1 treble nm="Grand Piano"
V:3 treble 
V:2 bass 
V:1
 [Ec]>[Ec] [Ec]>[Ec] [DB][CA][EG][DF] | [CE]2 [_CF]2 [=CE]4 | %2
w: Will~H.~Ruebush * * * * * * *||
 [Ec]>[Ec] [Ec]>[Ec] [DB][CA][CE][CF] | [DG]2 [C_G]2 [D=G]4 | d>d d>c B=A B2 | %5
w: |||
 [=Ec]>[Ec] [Ec]>[GB] AG A2 | [=DB]>[DB] [DB]>[DA] [DG][DF][DG][DF] | E6[K:bass] z2 | %8
w: |||
 [Ec]>[Ec] [Ec]>[Ec] [Ec][DG][DB][CA] | [CE]2 [Ec]2 [Ec]4 | [Ec]>[Ec] [Ec]>[Ec] [Ec][DG][DB][CA] | %11
w: |||
 [DG]2 d2 d4 | d>d d>=A cB z[K:bass] D, | [Ee]>[Ee] [Ee]>[=EG] [FB][FA][Ec][_Ge] | %14
w: |||
 [Fe][Fd][FA][=Ed] [_Ec]2 [DB]2 |[M:3/4] [CA]6 |] %16
w: ||
V:2
 [A,,A,]>[A,,A,] [A,,A,]>[A,,A,] [A,,E,][A,,E,][A,,A,][A,,A,] | [A,,A,]2 [A,,A,]2 [A,,A,]4 | %2
 [A,,A,]>[A,,A,] [A,,A,]>[A,,A,] [A,,E,][A,,E,][A,,E,][A,,E,] | [B,,E,]2 [=A,,E,]2 [B,,E,]4 | %4
 [E,G,E]>[E,G,E] [E,B,E]>[E,A,E] [E,G,E][E,_G,E] [E,=G,E]2 | %5
 [C,G,]>[C,G,] [C,G,]>[C,C] [F,CF][F,C=E] [F,CF]2 | %6
 [B,,B,]>[B,,A,] [B,,G,]>[B,,F,] [B,,B,][B,,B,][B,,B,][B,,A,] | [E,G,]6 z2 | %8
 [A,,A,]>[A,,A,] [A,,A,]>[A,,A,] [A,,A,][A,,A,][A,,A,][A,,A,] | [A,,A,]2 [A,,A,]2 [A,,A,]4 | %10
 [A,,A,]>[A,,A,] [A,,A,]>[A,,A,] [A,,A,][A,,A,][A,,A,][A,,A,] | [B,,E,]2 [E,G,E]2 [E,G,E]4 | %12
 [E,G,E]>[E,G,E] [E,G,E]>[E,_G,E] [E,G,E][E,=G,E] .[E,G,]2 | %13
 [C,A,]>[C,A,] [C,A,]>[C,B,] [D,A,][D,A,][C,A,][C,A,] | [D,A,][D,A,][D,A,][D,A,] [E,A,]2 [E,G,]2 | %15
[M:3/4] [A,,A,]6 |] %16
V:3
 x8 | x8 | x8 | x8 | x8 | x8 | x8 | z2[K:bass] D,2 C,2 B,,2 | x8 | x8 | x8 | x8 | %12
 z4 z2 E2[K:bass] | x8 | x8 |[M:3/4] x6 |] %16

